(G-CODE GENERATED BY FLATCAM v8.994 - www.flatcam.org - Version Date: 2020/11/7)

(Name: DRV8212 Motor MCU-F_Cu.gbr_ncc_cnc)
(Type: G-code from Geometry)
(Units: MM)

(Created on Saturday, 13 June 2026 at 19:01)

;This preprocessor is used with a motion controller loaded with REPETIER firmware.

;TOOL DIAMETER: 0.2 mm
;Feedrate_XY: 600.0 mm/min
;Feedrate_Z: 300.0 mm/min
;Feedrate rapids 1500.0 mm/min

;Z_Cut: 0.0 mm
;Z_Move: 1.0 mm
;Z Start: None mm
;Z End: 0.0 mm
;X,Y End: None mm
;Steps per circle: 64
;Preprocessor Geometry: Repetier

;X range:  -24.8950 ...   -0.1050  mm
;Y range:  -24.2318 ...   -0.9498  mm

;Spindle Speed: 0.0 RPM)
G21
G90
G94


G1 F600.00

G0 Z15.0000
G0 X0.0000 Y0.0000
M84
@pause Change to tool T1 with Tool Dia = 0.2000
G0 Z15.0000

M106
G1 F600.00
G0 X-4.8664 Y-6.0342 F1500.00
G1 F300.00
G1 Z0.0000 F300.00
G1 F600.00
G1 X-4.9969 Y-5.9744 F600.00
G1 X-5.1607 Y-5.9042 F600.00
G1 X-5.3262 Y-5.8380 F600.00
G1 X-5.4932 Y-5.7759 F600.00
G1 X-5.6617 Y-5.7180 F600.00
G1 X-5.8315 Y-5.6642 F600.00
G1 X-6.0027 Y-5.6145 F600.00
G1 X-6.1750 Y-5.5691 F600.00
G1 X-6.3483 Y-5.5280 F600.00
G1 X-6.5226 Y-5.4911 F600.00
G1 X-6.6978 Y-5.4584 F600.00
G1 X-6.8737 Y-5.4301 F600.00
G1 X-7.0503 Y-5.4062 F600.00
G1 X-7.2274 Y-5.3865 F600.00
G1 X-7.4049 Y-5.3712 F600.00
G1 X-7.5828 Y-5.3603 F600.00
G1 X-7.7608 Y-5.3537 F600.00
G1 X-7.9390 Y-5.3516 F600.00
G1 X-8.1172 Y-5.3537 F600.00
G1 X-8.2952 Y-5.3603 F600.00
G1 X-8.4731 Y-5.3712 F600.00
G1 X-8.6506 Y-5.3865 F600.00
G1 X-8.7602 Y-5.3987 F600.00
G0 Z1.0000 F1500.00
G0 X-5.3406 Y-5.7046 F1500.00
G1 F300.00
G1 Z0.0000 F300.00
G1 F600.00
G1 X-5.4527 Y-5.6630 F600.00
G1 X-5.6240 Y-5.6040 F600.00
G1 X-5.7967 Y-5.5493 F600.00
G1 X-5.9707 Y-5.4989 F600.00
G1 X-6.1458 Y-5.4527 F600.00
G1 X-6.3220 Y-5.4109 F600.00
G1 X-6.4992 Y-5.3734 F600.00
G1 X-6.6773 Y-5.3402 F600.00
G1 X-6.8561 Y-5.3114 F600.00
G1 X-7.0356 Y-5.2871 F600.00
G1 X-7.2156 Y-5.2671 F600.00
G1 X-7.3961 Y-5.2515 F600.00
G1 X-7.5769 Y-5.2404 F600.00
G1 X-7.7579 Y-5.2338 F600.00
G1 X-7.9390 Y-5.2316 F600.00
G1 X-8.1201 Y-5.2338 F600.00
G1 X-8.3011 Y-5.2404 F600.00
G1 X-8.4819 Y-5.2515 F600.00
G1 X-8.6624 Y-5.2671 F600.00
G1 X-8.8001 Y-5.2824 F600.00
G0 Z1.0000 F1500.00
G0 X-8.8744 Y-5.1703 F1500.00
G1 F300.00
G1 Z0.0000 F300.00
G1 F600.00
G1 X-8.8571 Y-5.1680 F600.00
G1 X-8.6741 Y-5.1477 F600.00
G1 X-8.4907 Y-5.1319 F600.00
G1 X-8.3070 Y-5.1206 F600.00
G1 X-8.1231 Y-5.1138 F600.00
G1 X-7.9390 Y-5.1116 F600.00
G1 X-7.7549 Y-5.1138 F600.00
G1 X-7.5710 Y-5.1206 F600.00
G1 X-7.3873 Y-5.1319 F600.00
G1 X-7.2039 Y-5.1477 F600.00
G1 X-7.0209 Y-5.1680 F600.00
G1 X-6.8385 Y-5.1927 F600.00
G1 X-6.6568 Y-5.2220 F600.00
G1 X-6.4758 Y-5.2557 F600.00
G1 X-6.2957 Y-5.2938 F600.00
G1 X-6.1166 Y-5.3363 F600.00
G1 X-5.9386 Y-5.3832 F600.00
G1 X-5.7619 Y-5.4345 F600.00
G1 X-5.7021 Y-5.4534 F600.00
G0 Z1.0000 F1500.00
G0 X-6.0079 Y-5.2409 F1500.00
G1 F300.00
G1 Z0.0000 F300.00
G1 F600.00
G1 X-6.0875 Y-5.2199 F600.00
G1 X-6.2694 Y-5.1767 F600.00
G1 X-6.4524 Y-5.1380 F600.00
G1 X-6.6363 Y-5.1037 F600.00
G1 X-6.8209 Y-5.0740 F600.00
G1 X-7.0062 Y-5.0489 F600.00
G1 X-7.1921 Y-5.0282 F600.00
G1 X-7.3784 Y-5.0122 F600.00
G1 X-7.5651 Y-5.0007 F600.00
G1 X-7.7520 Y-4.9938 F600.00
G1 X-7.9390 Y-4.9916 F600.00
G1 X-8.1260 Y-4.9938 F600.00
G1 X-8.3129 Y-5.0007 F600.00
G1 X-8.4996 Y-5.0122 F600.00
G1 X-8.6859 Y-5.0282 F600.00
G1 X-8.8718 Y-5.0489 F600.00
G1 X-8.9792 Y-5.0634 F600.00
G1 X-9.0855 Y-4.9571 F600.00
G1 X-9.0747 Y-4.9553 F600.00
G1 X-8.8864 Y-4.9298 F600.00
G1 X-8.6976 Y-4.9088 F600.00
G1 X-8.5084 Y-4.8925 F600.00
G1 X-8.3188 Y-4.8809 F600.00
G1 X-8.1289 Y-4.8739 F600.00
G1 X-7.9390 Y-4.8716 F600.00
G1 X-7.7490 Y-4.8739 F600.00
G1 X-7.5592 Y-4.8809 F600.00
G1 X-7.3696 Y-4.8925 F600.00
G1 X-7.1803 Y-4.9088 F600.00
G1 X-6.9915 Y-4.9298 F600.00
G1 X-6.8033 Y-4.9553 F600.00
G1 X-6.6157 Y-4.9855 F600.00
G1 X-6.4290 Y-5.0203 F600.00
G1 X-6.2800 Y-5.0518 F600.00
G0 Z1.0000 F1500.00
G0 X-6.5273 Y-4.8799 F1500.00
G1 F300.00
G1 Z0.0000 F300.00
G1 F600.00
G1 X-6.5952 Y-4.8673 F600.00
G1 X-6.7857 Y-4.8366 F600.00
G1 X-6.9768 Y-4.8107 F600.00
G1 X-7.1686 Y-4.7894 F600.00
G1 X-7.3608 Y-4.7728 F600.00
G1 X-7.5533 Y-4.7610 F600.00
G1 X-7.7461 Y-4.7539 F600.00
G1 X-7.9390 Y-4.7516 F600.00
G1 X-8.1319 Y-4.7539 F600.00
G1 X-8.3247 Y-4.7610 F600.00
G1 X-8.5172 Y-4.7728 F600.00
G1 X-8.7094 Y-4.7894 F600.00
G1 X-8.9011 Y-4.8107 F600.00
G1 X-9.0923 Y-4.8366 F600.00
G1 X-9.1902 Y-4.8524 F600.00
G0 Z1.0000 F1500.00
G0 X-9.2949 Y-4.7477 F1500.00
G1 F300.00
G1 Z0.0000 F300.00
G1 F600.00
G1 X-9.1099 Y-4.7179 F600.00
G1 X-8.9158 Y-4.6916 F600.00
G1 X-8.7212 Y-4.6700 F600.00
G1 X-8.5260 Y-4.6532 F600.00
G1 X-8.3306 Y-4.6412 F600.00
G1 X-8.1348 Y-4.6340 F600.00
G1 X-7.9390 Y-4.6316 F600.00
G1 X-7.7432 Y-4.6340 F600.00
G1 X-7.5474 Y-4.6412 F600.00
G1 X-7.3519 Y-4.6532 F600.00
G1 X-7.1568 Y-4.6700 F600.00
G1 X-6.9622 Y-4.6916 F600.00
G1 X-6.7581 Y-4.7195 F600.00
G0 Z1.0000 F1500.00
G0 X-6.9740 Y-4.5695 F1500.00
G1 F300.00
G1 Z0.0000 F300.00
G1 F600.00
G1 X-7.1451 Y-4.5506 F600.00
G1 X-7.3431 Y-4.5335 F600.00
G1 X-7.5415 Y-4.5213 F600.00
G1 X-7.7402 Y-4.5140 F600.00
G1 X-7.9390 Y-4.5116 F600.00
G1 X-8.1378 Y-4.5140 F600.00
G1 X-8.3364 Y-4.5213 F600.00
G1 X-8.5349 Y-4.5335 F600.00
G1 X-8.7329 Y-4.5506 F600.00
G1 X-8.9305 Y-4.5725 F600.00
G1 X-9.1275 Y-4.5992 F600.00
G1 X-9.3238 Y-4.6308 F600.00
G1 X-9.3980 Y-4.6446 F600.00
G0 Z1.0000 F1500.00
G0 X-9.5009 Y-4.5417 F1500.00
G1 F300.00
G1 Z0.0000 F300.00
G1 F600.00
G1 X-9.3443 Y-4.5126 F600.00
G1 X-9.1451 Y-4.4805 F600.00
G1 X-8.9452 Y-4.4534 F600.00
G1 X-8.7447 Y-4.4311 F600.00
G1 X-8.5437 Y-4.4138 F600.00
G1 X-8.3423 Y-4.4015 F600.00
G1 X-8.1407 Y-4.3940 F600.00
G1 X-7.9390 Y-4.3916 F600.00
G1 X-7.7373 Y-4.3940 F600.00
G1 X-7.5357 Y-4.4015 F600.00
G1 X-7.3343 Y-4.4138 F600.00
G1 X-7.1787 Y-4.4272 F600.00
G0 Z1.0000 F1500.00
G0 X-7.3745 Y-4.2911 F1500.00
G1 F300.00
G1 Z0.0000 F300.00
G1 F600.00
G1 X-7.5298 Y-4.2816 F600.00
G1 X-7.7343 Y-4.2741 F600.00
G1 X-7.9390 Y-4.2716 F600.00
G1 X-8.1437 Y-4.2741 F600.00
G1 X-8.3482 Y-4.2816 F600.00
G1 X-8.5525 Y-4.2941 F600.00
G1 X-8.7565 Y-4.3117 F600.00
G1 X-8.9599 Y-4.3343 F600.00
G1 X-9.1627 Y-4.3618 F600.00
G1 X-9.3648 Y-4.3943 F600.00
G1 X-9.5677 Y-4.4321 F600.00
G0 Z1.0000 F1500.00
G0 X-9.5527 Y-4.3073 F1500.00
G1 F300.00
G1 Z0.0000 F300.00
G1 F600.00
G1 X-9.3853 Y-4.2761 F600.00
G1 X-9.1803 Y-4.2431 F600.00
G1 X-8.9746 Y-4.2152 F600.00
G1 X-8.7682 Y-4.1923 F600.00
G1 X-8.5613 Y-4.1745 F600.00
G1 X-8.3541 Y-4.1617 F600.00
G1 X-8.1466 Y-4.1541 F600.00
G1 X-7.9390 Y-4.1516 F600.00
G1 X-7.7314 Y-4.1541 F600.00
G1 X-7.5628 Y-4.1603 F600.00
G0 Z1.0000 F1500.00
G0 X-7.7446 Y-4.0339 F1500.00
G1 F300.00
G1 Z0.0000 F300.00
G1 F600.00
G1 X-7.9390 Y-4.0316 F600.00
G1 X-8.1496 Y-4.0341 F600.00
G1 X-8.3600 Y-4.0419 F600.00
G1 X-8.5702 Y-4.0548 F600.00
G1 X-8.7800 Y-4.0729 F600.00
G1 X-8.9893 Y-4.0961 F600.00
G1 X-9.1979 Y-4.1244 F600.00
G1 X-9.4058 Y-4.1579 F600.00
G1 X-9.5531 Y-4.1853 F600.00
G0 Z1.0000 F1500.00
G0 X-9.5680 Y-4.0660 F1500.00
G1 F300.00
G1 Z0.0000 F300.00
G1 F600.00
G1 X-9.4264 Y-4.0396 F600.00
G1 X-9.2155 Y-4.0057 F600.00
G1 X-9.0040 Y-3.9770 F600.00
G1 X-8.7917 Y-3.9534 F600.00
G1 X-8.5790 Y-3.9351 F600.00
G1 X-8.3659 Y-3.9220 F600.00
G1 X-8.1525 Y-3.9142 F600.00
G1 X-7.9390 Y-3.9116 F600.00
G1 X-7.9204 Y-3.9118 F600.00
G0 Z1.0000 F1500.00
G0 X-8.0907 Y-3.7934 F1500.00
G1 F300.00
G1 Z0.0000 F300.00
G1 F600.00
G1 X-8.1554 Y-3.7942 F600.00
G1 X-8.3718 Y-3.8022 F600.00
G1 X-8.5878 Y-3.8155 F600.00
G1 X-8.8035 Y-3.8340 F600.00
G1 X-9.0187 Y-3.8579 F600.00
G1 X-9.2332 Y-3.8870 F600.00
G1 X-9.4469 Y-3.9214 F600.00
G1 X-9.5995 Y-3.9498 F600.00
G0 Z1.0000 F1500.00
G0 X-9.6459 Y-3.8364 F1500.00
G1 F300.00
G1 Z0.0000 F300.00
G1 F600.00
G1 X-9.4674 Y-3.8032 F600.00
G1 X-9.2508 Y-3.7683 F600.00
G1 X-9.0333 Y-3.7388 F600.00
G1 X-8.8153 Y-3.7146 F600.00
G1 X-8.5967 Y-3.6958 F600.00
G1 X-8.3777 Y-3.6823 F600.00
G1 X-8.2570 Y-3.6779 F600.00
G0 Z1.0000 F1500.00
G0 X-8.4198 Y-3.5647 F1500.00
G1 F300.00
G1 Z0.0000 F300.00
G1 F600.00
G1 X-8.6055 Y-3.5761 F600.00
G1 X-8.8270 Y-3.5952 F600.00
G1 X-9.0480 Y-3.6197 F600.00
G1 X-9.2684 Y-3.6496 F600.00
G1 X-9.4879 Y-3.6849 F600.00
G1 X-9.7078 Y-3.7259 F600.00
G0 Z1.0000 F1500.00
G0 X-9.7897 Y-3.6206 F1500.00
G1 F300.00
G1 Z0.0000 F300.00
G1 F600.00
G1 X-9.7299 Y-3.6079 F600.00
G1 X-9.5084 Y-3.5667 F600.00
G1 X-9.2860 Y-3.5309 F600.00
G1 X-9.0627 Y-3.5006 F600.00
G1 X-8.8388 Y-3.4758 F600.00
G1 X-8.6143 Y-3.4564 F600.00
G1 X-8.5788 Y-3.4542 F600.00
G0 Z1.0000 F1500.00
G0 X-8.7341 Y-3.3463 F1500.00
G1 F300.00
G1 Z0.0000 F300.00
G1 F600.00
G1 X-8.8506 Y-3.3563 F600.00
G1 X-9.0774 Y-3.3815 F600.00
G1 X-9.3036 Y-3.4122 F600.00
G1 X-9.5289 Y-3.4485 F600.00
G1 X-9.7533 Y-3.4902 F600.00
G1 X-9.8926 Y-3.5197 F600.00
G0 Z1.0000 F1500.00
G0 X-10.0282 Y-3.4264 F1500.00
G1 F300.00
G1 Z0.0000 F300.00
G1 F600.00
G1 X-10.0029 Y-3.4204 F600.00
G1 X-9.7767 Y-3.3726 F600.00
G1 X-9.5495 Y-3.3302 F600.00
G1 X-9.3212 Y-3.2935 F600.00
G1 X-9.0921 Y-3.2624 F600.00
G1 X-8.8875 Y-3.2397 F600.00
G0 Z1.0000 F1500.00
G0 X-9.0373 Y-3.1356 F1500.00
G1 F300.00
G1 Z0.0000 F300.00
G1 F600.00
G1 X-9.1068 Y-3.1433 F600.00
G1 X-9.3388 Y-3.1748 F600.00
G1 X-9.5700 Y-3.2120 F600.00
G1 X-9.8002 Y-3.2549 F600.00
G1 X-10.0292 Y-3.3034 F600.00
G1 X-10.2093 Y-3.3461 F600.00
G0 Z1.0000 F1500.00
G0 X-10.5115 Y-3.3004 F1500.00
G1 F300.00
G1 Z0.0000 F300.00
G1 F600.00
G1 X-10.2862 Y-3.2411 F600.00
G1 X-10.0555 Y-3.1863 F600.00
G1 X-9.8236 Y-3.1372 F600.00
G1 X-9.5905 Y-3.0938 F600.00
G1 X-9.3564 Y-3.0561 F600.00
G1 X-9.1851 Y-3.0328 F600.00
G0 Z1.0000 F1500.00
G0 X-9.3309 Y-2.9315 F1500.00
G1 F300.00
G1 Z0.0000 F300.00
G1 F600.00
G1 X-9.3740 Y-2.9374 F600.00
G1 X-9.6110 Y-2.9755 F600.00
G1 X-9.8470 Y-3.0195 F600.00
G1 X-10.0818 Y-3.0692 F600.00
G1 X-10.3153 Y-3.1246 F600.00
G1 X-10.5474 Y-3.1858 F600.00
G1 X-10.7780 Y-3.2527 F600.00
G1 X-11.0068 Y-3.3252 F600.00
G1 X-11.2338 Y-3.4033 F600.00
G1 X-11.4588 Y-3.4869 F600.00
G1 X-11.6816 Y-3.5760 F600.00
G1 X-11.9023 Y-3.6706 F600.00
G1 X-12.1205 Y-3.7705 F600.00
G1 X-12.1989 Y-3.8088 F600.00
G0 Z1.0000 F1500.00
G0 X-12.1506 Y-3.9188 F1500.00
G1 F300.00
G1 Z0.0000 F300.00
G1 F600.00
G1 X-12.0692 Y-3.8790 F600.00
G1 X-11.8536 Y-3.7803 F600.00
G1 X-11.6357 Y-3.6869 F600.00
G1 X-11.4156 Y-3.5988 F600.00
G1 X-11.1933 Y-3.5162 F600.00
G1 X-11.0250 Y-3.4583 F600.00
G0 Z1.0000 F1500.00
G0 X-11.2470 Y-3.6642 F1500.00
G1 F300.00
G1 Z0.0000 F300.00
G1 F600.00
G1 X-11.3724 Y-3.7108 F600.00
G1 X-11.5898 Y-3.7977 F600.00
G1 X-11.8050 Y-3.8900 F600.00
G1 X-12.0179 Y-3.9875 F600.00
G1 X-12.1155 Y-4.0352 F600.00
G0 Z1.0000 F1500.00
G0 X-12.0944 Y-4.1584 F1500.00
G1 F300.00
G1 Z0.0000 F300.00
G1 F600.00
G1 X-11.9666 Y-4.0960 F600.00
G1 X-11.7564 Y-3.9997 F600.00
G1 X-11.5439 Y-3.9086 F600.00
G1 X-11.3520 Y-3.8319 F600.00
G0 Z1.0000 F1500.00
G0 X-11.4119 Y-3.9851 F1500.00
G1 F300.00
G1 Z0.0000 F300.00
G1 F600.00
G1 X-11.4979 Y-4.0195 F600.00
G1 X-11.7077 Y-4.1094 F600.00
G1 X-11.9153 Y-4.2045 F600.00
G1 X-12.0919 Y-4.2907 F600.00
G0 Z1.0000 F1500.00
G0 X-12.1079 Y-4.4333 F1500.00
G1 F300.00
G1 Z0.0000 F300.00
G1 F600.00
G1 X-12.0664 Y-4.4118 F600.00
G1 X-11.8639 Y-4.3129 F600.00
G1 X-11.6591 Y-4.2191 F600.00
G1 X-11.4520 Y-4.1303 F600.00
G1 X-11.4410 Y-4.1259 F600.00
G0 Z1.0000 F1500.00
G0 X-11.4496 Y-4.2599 F1500.00
G1 F300.00
G1 Z0.0000 F300.00
G1 F600.00
G1 X-11.6105 Y-4.3288 F600.00
G1 X-11.8126 Y-4.4214 F600.00
G1 X-12.0125 Y-4.5189 F600.00
G1 X-12.1547 Y-4.5928 F600.00
G0 Z1.0000 F1500.00
G0 X-12.2532 Y-4.7822 F1500.00
G1 F300.00
G1 Z0.0000 F300.00
G1 F600.00
G1 X-12.1533 Y-4.7272 F600.00
G1 X-11.9585 Y-4.6261 F600.00
G1 X-11.7613 Y-4.5299 F600.00
G1 X-11.5618 Y-4.4385 F600.00
G1 X-11.4392 Y-4.3859 F600.00
G0 Z1.0000 F1500.00
G0 X-11.4142 Y-4.5058 F1500.00
G1 F300.00
G1 Z0.0000 F300.00
G1 F600.00
G1 X-11.5132 Y-4.5482 F600.00
G1 X-11.7100 Y-4.6384 F600.00
G1 X-11.9046 Y-4.7333 F600.00
G1 X-12.0967 Y-4.8330 F600.00
G1 X-12.2864 Y-4.9374 F600.00
G1 X-12.4734 Y-5.0464 F600.00
G1 X-12.5398 Y-5.0873 F600.00
G1 X-12.5398 Y-5.2283 F600.00
G1 X-12.4117 Y-5.1493 F600.00
G1 X-12.2272 Y-5.0418 F600.00
G1 X-12.0401 Y-4.9388 F600.00
G1 X-11.8506 Y-4.8405 F600.00
G1 X-11.6587 Y-4.7468 F600.00
G1 X-11.4646 Y-4.6579 F600.00
G1 X-11.3750 Y-4.6195 F600.00
G0 Z1.0000 F1500.00
G0 X-11.3206 Y-4.7268 F1500.00
G1 F300.00
G1 Z0.0000 F300.00
G1 F600.00
G1 X-11.4160 Y-4.7676 F600.00
G1 X-11.6074 Y-4.8553 F600.00
G1 X-11.7967 Y-4.9477 F600.00
G1 X-11.9836 Y-5.0447 F600.00
G1 X-12.1681 Y-5.1462 F600.00
G1 X-12.3500 Y-5.2522 F600.00
G1 X-12.5293 Y-5.3627 F600.00
G1 X-12.5398 Y-5.3696 F600.00
G1 X-12.5398 Y-5.5127 F600.00
G1 X-12.4651 Y-5.4641 F600.00
G1 X-12.2883 Y-5.3552 F600.00
G1 X-12.1089 Y-5.2506 F600.00
G1 X-11.9270 Y-5.1505 F600.00
G1 X-11.7427 Y-5.0549 F600.00
G1 X-11.5561 Y-4.9638 F600.00
G1 X-11.3673 Y-4.8773 F600.00
G1 X-11.2527 Y-4.8282 F600.00
G0 Z1.0000 F1500.00
G0 X-11.1701 Y-4.9233 F1500.00
G1 F300.00
G1 Z0.0000 F300.00
G1 F600.00
G1 X-11.3187 Y-4.9870 F600.00
G1 X-11.5048 Y-5.0723 F600.00
G1 X-11.6887 Y-5.1621 F600.00
G1 X-11.8704 Y-5.2563 F600.00
G1 X-12.0498 Y-5.3550 F600.00
G1 X-12.2266 Y-5.4581 F600.00
G1 X-12.4009 Y-5.5655 F600.00
G1 X-12.5398 Y-5.6559 F600.00
G1 X-12.5398 Y-5.8002 F600.00
G1 X-12.5058 Y-5.7769 F600.00
G1 X-12.3367 Y-5.6669 F600.00
G1 X-12.1649 Y-5.5610 F600.00
G1 X-11.9906 Y-5.4594 F600.00
G1 X-11.8139 Y-5.3622 F600.00
G1 X-11.6348 Y-5.2692 F600.00
G1 X-11.4535 Y-5.1808 F600.00
G1 X-11.2701 Y-5.0967 F600.00
G1 X-11.0846 Y-5.0173 F600.00
G1 X-11.0677 Y-5.0105 F600.00
G0 Z1.0000 F1500.00
G0 X-10.9435 Y-5.0900 F1500.00
G1 F300.00
G1 Z0.0000 F300.00
G1 F600.00
G1 X-11.0387 Y-5.1281 F600.00
G1 X-11.2214 Y-5.2065 F600.00
G1 X-11.4022 Y-5.2892 F600.00
G1 X-11.5808 Y-5.3764 F600.00
G1 X-11.7573 Y-5.4680 F600.00
G1 X-11.9315 Y-5.5638 F600.00
G1 X-12.1032 Y-5.6640 F600.00
G1 X-12.2725 Y-5.7682 F600.00
G1 X-12.4391 Y-5.8766 F600.00
G1 X-12.5398 Y-5.9457 F600.00
G1 X-12.5398 Y-6.0915 F600.00
G1 X-12.3724 Y-5.9764 F600.00
G1 X-12.2083 Y-5.8696 F600.00
G1 X-12.0415 Y-5.7669 F600.00
G1 X-11.8723 Y-5.6683 F600.00
G1 X-11.7007 Y-5.5738 F600.00
G1 X-11.5269 Y-5.4836 F600.00
G1 X-11.3509 Y-5.3977 F600.00
G1 X-11.1728 Y-5.3162 F600.00
G1 X-10.9928 Y-5.2390 F600.00
G1 X-10.8110 Y-5.1663 F600.00
G1 X-10.7840 Y-5.1563 F600.00
G0 Z1.0000 F1500.00
G0 X-10.5484 Y-5.1977 F1500.00
G1 F300.00
G1 Z0.0000 F300.00
G1 F600.00
G1 X-10.5869 Y-5.2110 F600.00
G1 X-10.7678 Y-5.2782 F600.00
G1 X-10.9469 Y-5.3499 F600.00
G1 X-11.1242 Y-5.4259 F600.00
G1 X-11.2996 Y-5.5062 F600.00
G1 X-11.4729 Y-5.5908 F600.00
G1 X-11.6442 Y-5.6797 F600.00
G1 X-11.8132 Y-5.7727 F600.00
G1 X-11.9798 Y-5.8698 F600.00
G1 X-12.1441 Y-5.9710 F600.00
G1 X-12.3058 Y-6.0762 F600.00
G1 X-12.4648 Y-6.1853 F600.00
G1 X-12.5398 Y-6.2395 F600.00
G1 X-12.4848 Y-6.3478 F600.00
G1 X-12.3957 Y-6.2834 F600.00
G1 X-12.2391 Y-6.1760 F600.00
G1 X-12.0799 Y-6.0724 F600.00
G1 X-11.9181 Y-5.9727 F600.00
G1 X-11.7540 Y-5.8771 F600.00
G1 X-11.5876 Y-5.7855 F600.00
G1 X-11.4190 Y-5.6980 F600.00
G1 X-11.2483 Y-5.6147 F600.00
G1 X-11.0756 Y-5.5356 F600.00
G1 X-10.9010 Y-5.4607 F600.00
G1 X-10.7246 Y-5.3902 F600.00
G1 X-10.5465 Y-5.3240 F600.00
G1 X-10.3669 Y-5.2622 F600.00
G1 X-10.2369 Y-5.2210 F600.00
G1 X-10.1411 Y-5.3168 F600.00
G1 X-10.3292 Y-5.3761 F600.00
G1 X-10.5061 Y-5.4370 F600.00
G1 X-10.6814 Y-5.5021 F600.00
G1 X-10.8550 Y-5.5716 F600.00
G1 X-11.0269 Y-5.6453 F600.00
G1 X-11.1970 Y-5.7232 F600.00
G1 X-11.3650 Y-5.8052 F600.00
G1 X-11.5310 Y-5.8913 F600.00
G1 X-11.6949 Y-5.9815 F600.00
G1 X-11.8565 Y-6.0757 F600.00
G1 X-12.0157 Y-6.1738 F600.00
G1 X-12.1724 Y-6.2758 F600.00
G1 X-12.3266 Y-6.3816 F600.00
G1 X-12.3989 Y-6.4337 F600.00
G1 X-12.3129 Y-6.5197 F600.00
G1 X-12.2576 Y-6.4797 F600.00
G1 X-12.1058 Y-6.3755 F600.00
G1 X-11.9515 Y-6.2752 F600.00
G1 X-11.7948 Y-6.1786 F600.00
G1 X-11.6357 Y-6.0859 F600.00
G1 X-11.4745 Y-5.9971 F600.00
G1 X-11.3111 Y-5.9124 F600.00
G1 X-11.1457 Y-5.8316 F600.00
G1 X-10.9783 Y-5.7550 F600.00
G1 X-10.8091 Y-5.6825 F600.00
G1 X-10.6382 Y-5.6141 F600.00
